T: Spaghetti Panic
M: 3/4
L: 1/8
K: Fmaj
gfgb gf^fg | [M: 3/4] bgfd Bd | [M: 4/4] gfgb gf^fg | [M:3/4] bg f2 ^f2 |[M:4/4] gfgb gf^fg | [M: 3/4] bgfd Bd | [M: 4/4] gfgb gf^fg |[M: 3/4] bg f2-f2 |]
